symbols/web/pin/materialsymbolssharp/pin_wght600_48px.svg

<svg xmlns="http://www.w3.org/2000/svg" height="48" width="48"><path d="M3.3 40.7V7.25h41.45V40.7Zm9.05-10.15h2.35V17.7h-1.85L9.1 20.25l1.15 1.7 2.1-1.4Zm6.65 0h8.15V28.5H21.8l.05-.1q.7-.6 1.525-1.325t1.475-1.425q1.1-1.05 1.675-1.975t.575-2.125q0-1.65-1.125-2.775T23 17.65q-1.55 0-2.575.7-1.025.7-1.525 1.85l2 1q.25-.5.85-.9t1.25-.4q.85 0 1.325.525t.475 1.225q0 .95-.5 1.625T23 24.65q-1.15 1.05-2 1.8-.85.75-2 1.85Zm15.7.05q1.85 0 3.075-.925T39 26.9q0-1.3-.7-2.125t-1.8-.875v-.1q1-.2 1.525-.925.525-.725.525-1.825 0-1.5-1.15-2.45-1.15-.95-2.8-.95-1.05 0-2.075.6-1.025.6-1.725 1.75l1.85 1.05q.4-.55.875-.85.475-.3 1.075-.3.7 0 1.175.425.475.425.475 1.175 0 .85-.55 1.1-.55.25-1.4.25h-.75V25h.75q.9 0 1.65.5.75.5.75 1.45 0 .9-.525 1.325-.525.425-1.475.425-.8 0-1.5-.475t-.95-1.275l-1.75.65q.45 1.4 1.475 2.2 1.025.8 2.725.8ZM7.25 36.75h33.5v-25.5H7.25Zm0 0v-25.5 25.5Z"/></svg>

<svg xmlns="http://www.w3.org/2000/svg" height="48" width="48"><path d="M3.3 40.7V7.25H44.75V40.7ZM12.35 30.55H14.7V17.7H12.85L9.1 20.25L10.25 21.95L12.35 20.55ZM19 30.55H27.15V28.5H21.8L21.85 28.4Q22.55 27.8 23.375 27.075Q24.2 26.35 24.85 25.65Q25.95 24.6 26.525 23.675Q27.1 22.75 27.1 21.55Q27.1 19.9 25.975 18.775Q24.85 17.65 23 17.65Q21.45 17.65 20.425 18.35Q19.4 19.05 18.9 20.2L20.9 21.2Q21.15 20.7 21.75 20.3Q22.35 19.9 23 19.9Q23.85 19.9 24.325 20.425Q24.8 20.95 24.8 21.65Q24.8 22.6 24.3 23.275Q23.8 23.95 23 24.65Q21.85 25.7 21 26.45Q20.15 27.2 19 28.3ZM34.7 30.6Q36.55 30.6 37.775 29.675Q39 28.75 39 26.9Q39 25.6 38.3 24.775Q37.6 23.95 36.5 23.9V23.8Q37.5 23.6 38.025 22.875Q38.55 22.15 38.55 21.05Q38.55 19.55 37.4 18.6Q36.25 17.65 34.6 17.65Q33.55 17.65 32.525 18.25Q31.5 18.85 30.8 20L32.65 21.05Q33.05 20.5 33.525 20.2Q34 19.9 34.6 19.9Q35.3 19.9 35.775 20.325Q36.25 20.75 36.25 21.5Q36.25 22.35 35.7 22.6Q35.15 22.85 34.3 22.85H33.55V25H34.3Q35.2 25 35.95 25.5Q36.7 26 36.7 26.95Q36.7 27.85 36.175 28.275Q35.65 28.7 34.7 28.7Q33.9 28.7 33.2 28.225Q32.5 27.75 32.25 26.95L30.5 27.6Q30.95 29 31.975 29.8Q33 30.6 34.7 30.6ZM7.25 36.75H40.75V11.25H7.25ZM7.25 36.75V11.25V36.75Z"/></svg>
